X:416
T:Southland
C:Jack Tottle
N:Transcribed by Greg Rohrer
R:bluegrass
L:1/8
Q:1/4=210
M:4/4
K:A
"Intro"z6 af | a2 af ac' af | af ac'2a f2 | cd ^de2c =d^d | e2 fe =g2 ^g2 | "Part A""A"ae fe cA F2 | 
A2 F2 A2 ae | ae fe cA F2 | "D7"A2 F2 A2 ae | ae fa2f e2 | "E"=g^g =g^g ec Bc | 
"A"A2 =c^c =cB AF | A2 fe =g2 ^g2 | "A"ae fe cA F2 | A2 F2 A2 ae | ae fe cA F2 | 
"D7"A2 F2 A2 ae | ae fa2f e2 | "E"=g^g =g^g ec Bc | "A"A2 =c^c =cB AF | A8 | "Part B""D"a2 f2 a2 f2 | 
ae fa2e fe | "A"a2 a2 ae fa | z6 fe | "B7"fa fe fa fe | fe fa3 "E"=g2 | zg =g^g be =g^g | 
e2 fe =g2 ^g2 | "A"ae fe cA F2 | A2 F2 A2 ae | ae fe cA F2 | "D7"A2 F2 A2 ae | 
ae fa2f e2 | "E"=g^g =g^g ec Bc | "A"A2 =c^c =cB AF | A8 | "Ending (slower)"ac' a2 =gb g2 | 
f=f e^d3 b2 | (3b^a=a f=f e{d}^d B^A | A{=G}^G e2 [A4C4] | 


